X:255
T:Madge Bayne 
C:Joe Buchanan's Scottish Tome - Page 305.2
I:305 2
C:David Finlay
R:Jig
Z:Carl Allison
L:1/8
M:6/8
K:D
A | "D" d3 fed | "D" A2 d F2 A | "Em" G2 E "D" A2 F | "G" B2 G "A7" ABc |
"D" d3 fed | "D" A2 d F2 D | "Em" Eed "A7" cBc | "D" d3 d2 :|
A | "D" d3 fed | "D" fed d3 | "Em" e3 gfe | "A7" gfe ABc |
"D" d3 fed | "D" fed def | "Em" g2 "A7" g ABc | "D" d3 d2 :|

